X:1
T:I Will!
T:I Will!
T:James McGranahan
T:Daniel Webster Whittle, 1883
T:Public Domain Courtesy of the Cyber Hymnal™
C:James McGranahan
Z:Public Domain
Z:Courtesy of the Cyber Hymnal™
%%score ( 1 2 ) ( 3 4 )
L:1/8
Q:1/4=102
M:4/4
K:A
V:1 treble 
V:2 treble 
V:3 bass 
V:4 bass 
V:1
 [CE]2 | [CA]2 [CA]2 [Ec]3 [EA] | [DB][DA][DA][DF] [CE]3 [CE] | [DF]2 [EA]2 [Ed]2 [Ec]2 | %4
w: 1.~Once|more, my soul, thy|Sav- ior, thro’ the Word, Is|of- fered full and|
w: 2.~By|grace I will Thy|mer- cy now re- ceive, Thy|love my heart hath|
w: 3.~Thou|know- est, Lord, how|ve- ry weak I am, And|how I fear to|
w: 4.~And|now, O Lord, give|all with us to- day The|grace to join our|
w: 5.~To|all who came, when|Thou wast here be- low, And|said, “O Lord, wilt|
 [EB]6 [DE]2 | [CA]2 [CA]2 [Ec]3 [=GA] | [FB][FA][FA][DF] [CE]3 [CE] | [DF]2 [Fd]2 [Ec]2 [DB]2 | %8
w: free; And|now, O Lord, I|must, I must de- cide: Shall|I ac- cept of|
w: won; On|Thee, O Christ, I|will, I will be- lieve, And|trust in Thee a-|
w: stray; For|strength to serve I|look to Thee a- lone— The|strength Thou must sup-|
w: song; And|from the heart to|glad- ly with us say: “I|will to Christ be-|
w: Thou?” To|them “I will!” was|ev- er Thy re- ply: We|rest up- on it|
 [CA]6 ||"^Refrain" z E | (z E) (z E) x7 | [Fd]2 [Fd]2 [Ec][Ec][^DB][DF] | %12
w: Thee?||||
w: lone!||||
w: ply!|I||will! I will! I will, God|
w: long!”||||
w: now.||||
 B2 B2 !fermata![GB]2 [DE]2 | [CA]2 [CA]2 [Ec]3 [=GA] | [FB][FA][FA][DF] [CE]3 [CE] | %15
w: |||
w: |||
w: help- ing me, I|will be Thine! Thy|pre- cious blood was shed to|
w: |||
w: |||
 [DF]2 [Fd]2 [Ec]2 [DB]2 | [CA]6 |] %17
w: ||
w: ||
w: pur- chase me— I|will|
w: ||
w: ||
V:2
 x2 | x8 | x8 | x8 | x8 | x8 | x8 | x8 | x6 || x2 | (B3 G G) (c3 AA)E | x8 | (EF) (GA) x4 | x8 | %14
 x8 | x8 | x6 |] %17
V:3
 [A,,A,]2 | [A,,E,]2 [A,,E,]2 [A,,A,]3 [C,A,] | [D,A,][D,F,][D,F,][D,A,] [A,,A,]3 [A,,A,] | %3
w: ~|~ ~ ~ ~|~ ~ ~ ~ ~ ~|
 [D,A,]2 [C,A,]2 [B,,G,]2 [A,,A,]2 | [E,G,]6 [E,G,]2 | [A,,A,]2 [A,,E,]2 [A,,A,]3 [C,A,] | %6
w: ~ ~ ~ ~|~ ~|~ ~ ~ ~|
 [D,A,][D,A,][D,A,][D,A,] [A,,A,]3 [A,,A,] | [D,A,]2 [B,,A,]2 [E,A,]2 [E,G,]2 | [A,,E,A,]6 || z2 | %10
w: ~ ~ ~ ~ ~ ~|~ ~ ~ ~|~||
 z [E,D][E,D] z2 [A,E][A,E][A,C] x3 | [D,A,]2 [E,G,]2 [F,A,][F,A,][F,A,][F,A,] | %12
w: I will! I will! ~|~ ~ ~ ~ ~ I|
 (G,A,) (B,C) !fermata![E,D]2 [E,G,]2 | [A,,A,]2 [A,,E,]2 [A,,A,]3 [C,A,] | %14
w: will * be * Thine! *||
 [D,A,][D,A,][D,A,][D,A,] [A,,A,]3 [A,,A,] | [D,A,]2 [B,,A,]2 [E,A,]2 (G,E,) | [A,,E,]6 |] %17
w: |||
V:4
 x2 | x8 | x8 | x8 | x8 | x8 | x8 | x8 | x6 || x2 | x11 | x8 | E,2 E,2 x4 | x8 | x8 | x6 E,2 | %16
 x6 |] %17

